Obsidian-SemiLight/actions/16s/distribute-horizontal-left.svg

<svg viewBox="0 0 16 16" xmlns="http://www.w3.org/2000/svg"><path d="m5 2-3 2 3 2zm2 0v4l3-2zm-5 3v2 6 1h1v-1h4v-6h-4v-2zm7 0v2 6 1h1v-1h4v-6h-4v-2zm-6 3h3v4h-3zm7 0h3v4h-3z" fill="#4d4d4d"/></svg>

<svg xmlns="http://www.w3.org/2000/svg" viewBox="0 0 16 16">
  <defs id="defs3051">
    <style type="text/css" id="current-color-scheme">
      .ColorScheme-Text {
        color:#4d4d4d;
      }
      </style>
  </defs>
 <path style="fill:currentColor;fill-opacity:1;stroke:none" 
     d="M 5 2 L 2 4 L 5 6 L 5 2 z M 7 2 L 7 6 L 10 4 L 7 2 z M 2 5 L 2 7 L 2 13 L 2 14 L 3 14 L 3 13 L 7 13 L 7 7 L 3 7 L 3 5 L 2 5 z M 9 5 L 9 7 L 9 13 L 9 14 L 10 14 L 10 13 L 14 13 L 14 7 L 10 7 L 10 5 L 9 5 z M 3 8 L 6 8 L 6 12 L 3 12 L 3 8 z M 10 8 L 13 8 L 13 12 L 10 12 L 10 8 z "
     class="ColorScheme-Text"
     />
</svg>
